dist/svg/globe-warning.svg

<!-- Generated by Trend Micro Style Portal -->
<svg version="1.1" xmlns="http://www.w3.org/2000/svg" width="16" height="16" viewBox="0 0 16 16">
  <title>globe-warning</title>
  <path fill="rgb(34,34,34)" d="M11 6c-2.761 0-5 2.239-5 5s2.239 5 5 5c2.761 0 5-2.239 5-5v0c0-2.761-2.239-5-5-5v0zM12 14h-2v-1h2zM12 12h-2v-4h2zM5.94 14.22c-0.037 0.187-0.122 0.35-0.241 0.481l0.001-0.001c-0.11 0.080-0.59 0.23-0.7 0s-0.050-0.31 0-0.63 0.25-0.7 0-1-1-1-1-1c-0.19 0-0.12-0.45-0.28-0.79-0.23-0.49 0.18-0.74 0.28-1.21s0.36-1 1-1c0.118 0.005 0.228 0.038 0.324 0.092l-0.004-0.002c0.083-0.245 0.164-0.444 0.256-0.636l-0.016 0.037c-0.080 0.020-0.171 0.032-0.265 0.032s-0.185-0.012-0.273-0.034l0.008 0.002c-0.2-0.21-0.62-0.37-0.8-0.62s-0.070-0.54-0.28-0.69c-0.277-0.119-0.597-0.207-0.933-0.248l-0.017-0.002c-0.3 0-0.74 0.16-1 0-0.248-0.289-0.462-0.618-0.629-0.974l-0.011-0.026c0.401-2.042 1.771-3.695 3.6-4.485l0.040-0.015s1.74-0.56 2 0.5c0 0 0 0.55-0.32 0.75-0.17 0.1-0.47 0.15-0.68 0.25l-1 0.38c-0.419 0.055-0.775 0.286-0.997 0.615l-0.003 0.005c-0.13 0.22 0.2 0.8 0 1-0.43 0.39 0.070 0.94 0 1 0.080 0.15-0.060 0.25 0.2 0.5 0.090 0.090 0 0.39 0.1 0.49 0.074 0.109 0.151 0.237 0.22 0.369l0.010 0.021c0.050 0.1 0.43 0.54 0.48 0.61s0.43 0.28 0.59 0.42c0.988-2.030 3.033-3.405 5.399-3.41h0.001c0-0.17-0.29-0.26-0.24-0.45 0.078-0.217 0.159-0.399 0.251-0.573l-0.011 0.023c0.403-0.565 0.895-1.037 1.459-1.407l0.021-0.013c1.283 0.921 2.196 2.288 2.513 3.87l0.007 0.040c0.378 0.342 0.708 0.726 0.986 1.148l0.014 0.022c-0.191-4.266-3.696-7.653-7.992-7.653-4.418 0-8 3.582-8 8 0 4.3 3.392 7.807 7.646 7.992l0.017 0.001c-0.697-0.473-1.275-1.066-1.716-1.756l-0.014-0.024zM12 2l-1 1-1-0.52c-0.46 0.42-0.86-0.13-1-0.5-0.050-0.16-0.76-0.62-1-0.94 0.156-0.013 0.338-0.020 0.522-0.020 1.287 0 2.488 0.365 3.507 0.997l-0.028-0.016z"></path>
</svg>

<svg width="16" height="16" viewBox="0 0 16 16" fill="rgb(34, 34, 34)" xmlns="http://www.w3.org/2000/svg"><title>globe-warning</title><path d="M11 6C8.239 6 6 8.239 6 11C6 13.761 8.239 16 11 16C13.761 16 16 13.761 16 11C16 8.239 13.761 6 11 6ZM12 14H10V13H12V14ZM12 12H10V8H12V12ZM5.94 14.22C5.903 14.407 5.818 14.57 5.699 14.701L5.7 14.7C5.59 14.78 5.11 14.93 5 14.7C4.89 14.47 4.95 14.39 5 14.07C5.05 13.75 5.25 13.37 5 13.07C4.75 12.77 4 12.07 4 12.07C3.81 12.07 3.88 11.62 3.72 11.28C3.49 10.79 3.9 10.54 4 10.07C4.1 9.6 4.36 9.07 5 9.07C5.118 9.075 5.228 9.108 5.324 9.162L5.32 9.16C5.403 8.915 5.484 8.716 5.576 8.524L5.56 8.561C5.48 8.581 5.389 8.593 5.295 8.593C5.201 8.593 5.11 8.581 5.022 8.559L5.03 8.561C4.83 8.351 4.41 8.191 4.23 7.941C4.05 7.691 4.16 7.401 3.95 7.251C3.673 7.132 3.353 7.044 3.017 7.003L3 7.001C2.7 7.001 2.26 7.161 2 7.001C1.752 6.712 1.538 6.383 1.371 6.027L1.36 6.001C1.761 3.959 3.131 2.306 4.96 1.516L5 1.501C5 1.501 6.74 0.941003 7 2.001C7 2.001 7 2.551 6.68 2.751C6.51 2.851 6.21 2.901 6 3.001L5 3.381C4.581 3.436 4.225 3.667 4.003 3.996L4 4.001C3.87 4.221 4.2 4.801 4 5.001C3.57 5.391 4.07 5.941 4 6.001C4.08 6.151 3.94 6.251 4.2 6.501C4.29 6.591 4.2 6.891 4.3 6.991C4.374 7.1 4.451 7.228 4.52 7.36L4.53 7.381C4.58 7.481 4.96 7.921 5.01 7.991C5.06 8.061 5.44 8.271 5.6 8.411C6.588 6.381 8.63299 5.006 10.999 5.001H11C11 4.831 10.71 4.741 10.76 4.551C10.838 4.334 10.919 4.152 11.011 3.978L11 4.001C11.403 3.436 11.895 2.964 12.459 2.594L12.48 2.581C13.763 3.502 14.676 4.869 14.993 6.451L15 6.491C15.378 6.833 15.708 7.217 15.986 7.639L16 7.661C15.809 3.395 12.304 0.00800323 8.008 0.00800323C3.59 0.00800323 0.00799561 3.59 0.00799561 8.008C0.00799561 12.308 3.4 15.815 7.654 16L7.671 16.001C6.974 15.528 6.396 14.935 5.955 14.245L5.941 14.221L5.94 14.22ZM12 2L11 3L10 2.48C9.54 2.9 9.14 2.35 9 1.98C8.95 1.82 8.24 1.36 8 1.04C8.156 1.027 8.338 1.02 8.522 1.02C9.809 1.02 11.01 1.385 12.029 2.017L12.001 2.001L12 2Z" fill="rgb(34, 34, 34)" fill-opacity="1.00"/></svg>
